X: 14231
T: Funny Tailor, The
R: waltz
M: 3/4
K: Gmajor
GED|GAB|GBA|G2 G|G2 A|
B2 A|Bgf|efe|d2 B|d2 G|
B2 A|Bgf|efe|d2 B|d2 B/A/|
GED|GAB|GBA|G2 G|G2||
GED|GAB|GBA|G2 G|
G2 A|B2 A|Bgf|efe|
d2 B|d2 G|B2 A|Bgf|
efe|d2 B|d3-|d2 B/A/|
GED|GAB|GBA|G2 G|G3-|G2||

